app/static/images/icons/menu/bell.svg

<svg fill="none" height="32" viewBox="0 0 23 32" width="23" xmlns="http://www.w3.org/2000/svg"><path d="m16 14c0-1.5913-.6321-3.1174-1.7574-4.24264-1.1252-1.12522-2.6513-1.75736-4.2426-1.75736s-3.11742.63214-4.24264 1.75736c-1.12522 1.12524-1.75736 2.65134-1.75736 4.24264 0 7-3 9-3 9h18s-3-2-3-9z" stroke="#000" stroke-linecap="round" stroke-linejoin="round" stroke-width="2"/><path d="m11.7295 30c-.1758.3031-.4281.5547-.7317.7295-.3037.1749-.6479.267-.99827.267-.35038 0-.69461-.0921-.99823-.267-.30361-.1748-.55596-.4264-.73177-.7295" stroke="#000" stroke-linecap="round" stroke-linejoin="round" stroke-width="2"/><circle cx="17" cy="6" fill="#00bfb9" r="6"/></svg>

<svg width="23" height="32" viewBox="0 0 23 32" fill="none" xmlns="http://www.w3.org/2000/svg">
<path d="M16 14C16 12.4087 15.3679 10.8826 14.2426 9.75736C13.1174 8.63214 11.5913 8 10 8C8.4087 8 6.88258 8.63214 5.75736 9.75736C4.63214 10.8826 4 12.4087 4 14C4 21 1 23 1 23H19C19 23 16 21 16 14Z" stroke="#000" stroke-width="2" stroke-linecap="round" stroke-linejoin="round"/>
<path d="M11.7295 30C11.5537 30.3031 11.3014 30.5547 10.9978 30.7295C10.6941 30.9044 10.3499 30.9965 9.99953 30.9965C9.64915 30.9965 9.30492 30.9044 9.0013 30.7295C8.69769 30.5547 8.44534 30.3031 8.26953 30" stroke="#000" stroke-width="2" stroke-linecap="round" stroke-linejoin="round"/>
<circle cx="17" cy="6" r="6" fill="#00bfb9"/>
</svg>
